static/client-logos/watermark-community-church-icon.svg

<svg height="50" viewBox="0 0 50 50" width="50" xmlns="http://www.w3.org/2000/svg"><path d="m32.8495541 29.1053685-1.4221611 5.3396925c-.2339743.881903-1.036386 1.4923359-1.9497855 1.4878364-.9118997-.0074992-1.7053125-.6314306-1.927288-1.5163332 0 0-.7944765-3.1807671-1.7331524-6.9343481-.1704242-.0464617-.340726-.092985-.5109008-.1394738-.2862648-.0781257-.5732958-.1564637-.8609741-.2344999-.9795317 3.9138182-1.8294299 7.3083218-1.8294299 7.3083218-.2204758.881903-1.0078892 1.5043345-1.9167892 1.5163332-.9089.008999-1.7113118-.5924349-1.954285-1.4683385l-2.5071652-9.0519833c-.6717522-.0619289-1.3409603-.0961104-2.0061384-.0961104-5.24733825 0-8.84076381 2.135262-10.226925 3.1277117v7.1439084c0 5.736869 4.66598674 10.4043555 10.4013558 10.4043555h21.1881694c5.7353691 0 10.4013558-4.6674865 10.4013558-10.4043555v-8.6234228c-4.371239 2.6228409-8.7777488 2.819897-13.1458864 2.140706zm1.0368839-3.8931181c4.2329099.5872356 8.1969108.1014995 12.1090025-3.1547823v-7.6515528c0-5.73536906-4.6659867-10.40285564-10.4013558-10.40285564h-21.1881694c-5.73536906 0-10.4013558 4.66748658-10.4013558 10.40285564v9.3547691c2.32174599-1.2063618 5.78992971-2.4487787 10.226925-2.4487787.2923151 0 .5838853.0053752.8747177.0157373l-1.2433771-4.4891452c-.2954675-1.0663827.3299637-2.1687615 1.3948466-2.464229 1.0648828-.2954675 2.1687614.3299637 2.4642289 1.3948466 0 0 .7433714 2.6841857 1.6714722 6.0357194.7187326.1276302 1.4329566.2748707 2.142788.4354051.8835078-3.5298829 1.6076434-6.4231298 1.6076434-6.4231298.2234754-.890902 1.0228875-1.5148334 1.9422863-1.5148334.9193989 0 1.718811.6254313 1.9422864 1.5148334 0 0 1.0112245 4.0460739 2.1008275 8.4047552.2754067.0707076.5494847.1396872.8222853.2065386 1.1840667-4.4483521 2.3008125-8.6397906 2.3008125-8.6397906.2849687-1.0693824 1.3813481-1.7038126 2.4492306-1.418844 1.0693824.2834688 1.7053124 1.3798482 1.4203438 2.4492306zm-19.4805227-25.2122504h21.1881694c7.9431262 0 14.4059153 6.46278909 14.4059153 14.4059153v21.18217c0 7.9461259-6.4627891 14.408915-14.4059153 14.408915h-21.1881694c-7.94312621 0-14.4059153-6.4627891-14.4059153-14.408915v-21.18217c0-7.94312621 6.46278909-14.4059153 14.4059153-14.4059153z" fill="#fff" fill-rule="evenodd"/></svg>

<?xml version="1.0" encoding="UTF-8"?>
<svg width="50px" height="50px" viewBox="0 0 50 50" version="1.1" xmlns="http://www.w3.org/2000/svg" xmlns:xlink="http://www.w3.org/1999/xlink">
    <!-- Generator: Sketch 52.6 (67491) - http://www.bohemiancoding.com/sketch -->
    <title>watermark-community-church-icon</title>
    <desc>Created with Sketch.</desc>
    <defs>
        <path d="M32.8495541,29.1053685 L31.427393,34.445061 C31.1934187,35.326964 30.391007,35.9373969 29.4776075,35.9328974 C28.5657078,35.9253982 27.772295,35.3014668 27.5503195,34.4165642 C27.5503195,34.4165642 26.755843,31.2357971 25.8171671,27.4822161 C25.6467429,27.4357544 25.4764411,27.3892311 25.3062663,27.3427423 C25.0200015,27.2646166 24.7329705,27.1862786 24.4452922,27.1082424 C23.4657605,31.0220606 22.6158623,34.4165642 22.6158623,34.4165642 C22.3953865,35.2984672 21.6079731,35.9208987 20.6990731,35.9328974 C19.7901731,35.9418964 18.9877613,35.3404625 18.7447881,34.4645589 L16.2376229,25.4125756 C15.5658707,25.3506467 14.8966626,25.3164652 14.2314845,25.3164652 C8.98414625,25.3164652 5.39072069,27.4517272 4.0045595,28.4441769 L4.0045595,35.5880853 C4.0045595,41.3249543 8.67054624,45.9924408 14.4059153,45.9924408 L35.5940847,45.9924408 C41.3294538,45.9924408 45.9954405,41.3249543 45.9954405,35.5880853 L45.9954405,26.9646625 C41.6242015,29.5875034 37.2176917,29.7845595 32.8495541,29.1053685 Z M33.886438,25.2122504 C38.1193479,25.799486 42.0833488,25.3137499 45.9954405,22.0574681 L45.9954405,14.4059153 C45.9954405,8.67054624 41.3294538,4.00305966 35.5940847,4.00305966 L14.4059153,4.00305966 C8.67054624,4.00305966 4.0045595,8.67054624 4.0045595,14.4059153 L4.0045595,23.7606844 C6.32630549,22.5543226 9.79448921,21.3119057 14.2314845,21.3119057 C14.5237996,21.3119057 14.8153698,21.3172809 15.1062022,21.327643 L13.8628251,16.8384978 C13.5673576,15.7721151 14.1927888,14.6697363 15.2576717,14.3742688 C16.3225545,14.0788013 17.4264331,14.7042325 17.7219006,15.7691154 C17.7219006,15.7691154 18.465272,18.4533011 19.3933728,21.8048348 C20.1121054,21.932465 20.8263294,22.0797055 21.5361608,22.2402399 C22.4196686,18.710357 23.1438042,15.8171101 23.1438042,15.8171101 C23.3672796,14.9262081 24.1666917,14.3022767 25.0860905,14.3022767 C26.0054894,14.3022767 26.8049015,14.927708 27.0283769,15.8171101 C27.0283769,15.8171101 28.0396014,19.863184 29.1292044,24.2218653 C29.4046111,24.2925729 29.6786891,24.3615525 29.9514897,24.4284039 C31.1355564,19.9800518 32.2523022,15.7886133 32.2523022,15.7886133 C32.5372709,14.7192309 33.6336503,14.0848007 34.7015328,14.3697693 C35.7709152,14.6532381 36.4068452,15.7496175 36.1218766,16.8189999 L33.886438,25.2122504 Z M14.4059153,0 L35.5940847,0 C43.5372109,0 50,6.46278909 50,14.4059153 L50,35.5880853 C50,43.5342112 43.5372109,49.9970003 35.5940847,49.9970003 L14.4059153,49.9970003 C6.46278909,49.9970003 1.20792265e-13,43.5342112 1.20792265e-13,35.5880853 L1.20792265e-13,14.4059153 C1.20792265e-13,6.46278909 6.46278909,0 14.4059153,0 Z" id="path-1"></path>
    </defs>
    <g id="watermark-community-church-icon" stroke="none" stroke-width="1" fill="none" fill-rule="evenodd">
        <mask id="mask-2" fill="white">
            <use xlink:href="#path-1"></use>
        </mask>
        <use id="Mask" fill="#FFFFFF" xlink:href="#path-1"></use>
    </g>
</svg>
